X: 211
T: Lady Montague's Strathspey
C: William Shepherd (17??-1812)
R: strathspey
Q: "Very Slow"
B: William Shepherd "2nd Collection" 1800 p.21 #1
F: http://imslp.org/wiki/File:PMLP73094-Shepherd_Collections_HMT.pdf
Z: 2012 John Chambers <jc:trillian.mit.edu>
M: C
L: 1/16
K: Am
E2 |\
A3Ac3B A3E {B}TA4 | .G2.G2.G2.B2 {e}d3c {c}B2.A.^G |\
.A2.A2c3B A3E {B}TA4 | B2(cd) (ed).c.B c3AA2E2 |
.A2.A2c3B A3E TA4 | .G2.G2.G2.B2 {e}d3c {c}B2.A.^G |\
.A2.A2c3B A3E {B}TA4 | .c2.c2 .B.c.d.B c2AA2B2 ||
Tc3cTe3c Tg3cTe3c | .G2.G2 (Bc).dc B3GG3B |\
Tc3cTe3c Tg3cTe3c | g3c (Bc).d.B Tc2A2A2B2 |
Tc3cTe3c Tg3cTe3c | (Bc).d.e (dc).B.A B3G G2ed |\
c3AB3^G .A2.A2 {B}He4 | T.c2.c2 (Bc).d.B Tc2A2A2 |]
